X:4
T:Turning of the Season (The) - Maggie
C:Robin Bullock
M:3/4
L:1/4
K:G
%%staves{RH1 RH2 RH3}
V:RH3 clef=treble name="Maggie"
[V:RH3] |:z|G,3|D3
[V:RH3] |E3|G3|D3|E3
[V:RH3] |G3|F3|G,3|G,3
[V:RH3] |E3|G3|D3|
[V:RH3] |E3|F3|G3||
[V:RH3] |D3|F3|G3|D3
[V:RH3] |A3|G3|E3|F3
[V:RH3] |D3|D3|G3|D3
[V:RH3] |A3|E3|D3-|D2:||

